X:1
T:Meadowlands
M:4/4
L:1/8
K:Bb
 B4 G2 B2| A4 F2 D2| BA GF G2 d2| A4 D4| G2 FE DC DE| D2- A2- ^F2 D2|\
 GG FE DCD-E| D2 A4 d2|
